X:736
T:The millpond
R:Jig
O:Ireland
B:Bulmer & Sharpley 4 (?)
S:Xerox of sets(Cooking with turf (?))
Z:Transcription, chords:Mike Long
M:6/8
L:1/8
K:G
E|\
"G"DGG BGG|dGG BGG|"D"DFA DFA|"D"DFA "C"cBA|\
"G"DGG BGG|dGG BGG|"D"DFA "C"cBA|"G"BGF G2:|
|:G|\
"G"Bdg bgg|"D"aff "G"gee|"D"Ace aba|"C"gag "D"fed|\
"G"Bdg bgg|"D"aff "G"gee|"D"ABc dcA|"D"AGF "G"G2:|
